papirus/16x16/mimetypes/text-x-makefile.svg

<?xml version="1.0" encoding="UTF-8" standalone="no"?>
<svg
   xmlns:dc="http://purl.org/dc/elements/1.1/"
   xmlns:cc="http://creativecommons.org/ns#"
   xmlns:rdf="http://www.w3.org/1999/02/22-rdf-syntax-ns#"
   xmlns:svg="http://www.w3.org/2000/svg"
   xmlns="http://www.w3.org/2000/svg"
   xmlns:sodipodi="http://sodipodi.sourceforge.net/DTD/sodipodi-0.dtd"
   xmlns:inkscape="http://www.inkscape.org/namespaces/inkscape"
   id="svg2"
   height="16px"
   width="16px"
   version="1.1"
   viewBox="0 0 16 16"
   inkscape:version="0.91 r"
   sodipodi:docname="text-x-makefile.svg">
  <defs
     id="defs11" />
  <sodipodi:namedview
     pagecolor="#ffffff"
     bordercolor="#666666"
     borderopacity="1"
     objecttolerance="10"
     gridtolerance="10"
     guidetolerance="10"
     inkscape:pageopacity="0"
     inkscape:pageshadow="2"
     inkscape:window-width="1535"
     inkscape:window-height="876"
     id="namedview9"
     showgrid="false"
     inkscape:zoom="31.62"
     inkscape:cx="8"
     inkscape:cy="8"
     inkscape:window-x="65"
     inkscape:window-y="24"
     inkscape:window-maximized="1"
     inkscape:current-layer="svg2" />
  <metadata
     id="metadata17">
    <rdf:RDF>
      <cc:Work
         rdf:about="">
        <dc:format>image/svg+xml</dc:format>
        <dc:type
           rdf:resource="http://purl.org/dc/dcmitype/StillImage" />
      </cc:Work>
    </rdf:RDF>
  </metadata>
  <path
     style="fill:#ebe8d7"
     inkscape:connector-curvature="0"
     d="M 2.75,1 C 2.33276,1 2,1.33276 2,1.75 l 0,13.5 C 2,15.667192 2.332808,16 2.75,16 l 10.5,0 C 13.6676,16 14,15.6676 14,15.25 L 14,5.5 9.875,5.125 9.5,1 Z"
     id="path5" />
  <path
     style="fill:#f8f8f0"
     inkscape:connector-curvature="0"
     d="m 9.5,1 0,3.75 c 0,0.41256 0.33744,0.75 0.75,0.75 l 3.75,0 z"
     id="path7" />
  <path
     style="fill-opacity:1;fill:#000000;opacity:0.5"
     d="M 6.9941406 6 L 6.9355469 6.6699219 A 3.5 3.5 0 0 0 5.6347656 7.4238281 L 5.0117188 7.1308594 L 4 8.8632812 L 4.5800781 9.2636719 A 3.5 3.5 0 0 0 4.5 10 A 3.5 3.5 0 0 0 4.5820312 10.736328 L 4 11.136719 L 5.0117188 12.863281 L 5.6347656 12.574219 A 3.5 3.5 0 0 0 6.9335938 13.332031 L 6.9882812 14 L 9.0117188 14 L 9.0664062 13.330078 A 3.5 3.5 0 0 0 10.365234 12.574219 L 10.988281 12.865234 L 12 11.136719 L 11.419922 10.736328 A 3.5 3.5 0 0 0 11.5 10 A 3.5 3.5 0 0 0 11.417969 9.265625 L 12 8.8632812 L 10.988281 7.1367188 L 10.365234 7.4257812 A 3.5 3.5 0 0 0 9.0664062 6.6679688 L 9.0117188 6 L 6.9941406 6 z M 8 8 C 9.10156 8 10 8.89844 10 10 C 10 11.10156 9.10156 12 8 12 C 6.89844 12 6 11.10156 6 10 C 6 8.89844 6.89844 8 8 8 z "
     id="path4145" />
  <path
     style="fill:#ffffff;fill-opacity:0.2"
     inkscape:connector-curvature="0"
     d="M 2.75,1 C 2.33276,1 2,1.33276 2,1.75 l 0,0.6 C 2,1.93276 2.33276,1.6 2.75,1.6 l 6.75,0 0,-0.6 z"
     id="path11" />
</svg>

<?xml version="1.0" encoding="UTF-8" standalone="no"?>
<svg id="svg2" xmlns:rdf="http://www.w3.org/1999/02/22-rdf-syntax-ns#" xmlns="http://www.w3.org/2000/svg" height="16px" width="16px" version="1.1" xmlns:cc="http://creativecommons.org/ns#" viewBox="0 0 16 16" xmlns:dc="http://purl.org/dc/elements/1.1/">
 <metadata id="metadata17">
  <rdf:RDF>
   <cc:Work rdf:about="">
    <dc:format>image/svg+xml</dc:format>
    <dc:type rdf:resource="http://purl.org/dc/dcmitype/StillImage"/>
   </cc:Work>
  </rdf:RDF>
 </metadata>
 <path id="path5" fill="#ccc" d="m2.75 1c-0.4172 0-0.75 0.3328-0.75 0.75v13.5c0 0.417 0.3328 0.75 0.75 0.75h10.5c0.418 0 0.75-0.332 0.75-0.75v-9.75l-4.125-0.375-0.375-4.125z"/>
 <path id="path7" fill="#f8f8f0" d="m9.5 1v3.75c0 0.41256 0.33744 0.75 0.75 0.75h3.75z"/>
 <path id="path4145" opacity=".5" d="m6.9941 6l-0.0586 0.6699a3.5 3.5 0 0 0 -1.3007 0.7539l-0.6231-0.2929-1.0117 1.7324 0.5801 0.4004a3.5 3.5 0 0 0 -0.0801 0.7363 3.5 3.5 0 0 0 0.082 0.736l-0.582 0.401 1.0117 1.726 0.6231-0.289a3.5 3.5 0 0 0 1.2988 0.758l0.0547 0.668h2.0234l0.0547-0.67a3.5 3.5 0 0 0 1.2986 -0.756l0.623 0.291 1.012-1.728-0.58-0.401a3.5 3.5 0 0 0 0.08 -0.736 3.5 3.5 0 0 0 -0.082 -0.7344l0.582-0.4023-1.012-1.7266-0.623 0.2891a3.5 3.5 0 0 0 -1.2986 -0.7578l-0.0547-0.668h-2.0176zm1.0059 2c1.1016 0 2 0.8984 2 2 0 1.102-0.8984 2-2 2s-2-0.898-2-2c0-1.1016 0.8984-2 2-2z"/>
 <path id="path11" fill-opacity=".2" fill="#fff" d="m2.75 1c-0.4172 0-0.75 0.3328-0.75 0.75v0.6c0-0.4172 0.3328-0.75 0.75-0.75h6.75v-0.6z"/>
</svg>
